icon-themes/sifr_svg/cmd/lc_arrowshapes.quad-arrow.svg

<svg viewBox="0 0 24 24" xmlns="http://www.w3.org/2000/svg"><g fill="#555753"><path d="m12 0-3 3h2v8h-8v-2l-3 3 3 3v-2h8v8h-2l3 3 3-3h-2v-8h7v3c4.925172-4.694285 4.582198-3.417802 0-8v3h-7v-8h2z" opacity=".35"/><path d="m10.585938 0-3.585938 3.5859375v1.4140625h2v4h-4v-2h-1.4140625l-.2929687.2929688-3.2929688 3.2929692v2.828124l3.5859375 3.585938h1.4140625v-2h4v4h-2v1.414062l.2929688.292969 3.2929692 3.292969h2.828124l3.585938-3.585938v-1.414062h-2v-4h4v2h1.414062l.292969-.292969 3.292969-3.292969v-2.828124l-3.585938-3.585938h-1.414062v2h-4v-4h2v-1.4140625l-.292969-.2929687-3.292969-3.2929688zm1.414062 1.4140625 1.585938 1.5859375h-.585938v8h8v-.585938l1.585938 1.585938-1.585938 1.585938v-.585938h-8v8h.585938l-1.585938 1.585938-1.585938-1.585938h.585938v-8h-8v.585938l-1.5859375-1.585938 1.5859375-1.585938v.585938h8v-8h-.585938z"/></g></svg>

<svg viewBox="0 0 24 24" xmlns="http://www.w3.org/2000/svg">
  <path
     style="opacity:0.35;fill:#555753"
     d="M 12 0 L 9 3 L 11 3 L 11 11 L 3 11 L 3 9 L 0 12 L 3 15 L 3 13 L 11 13 L 11 21 L 9 21 L 12 24 L 15 21 L 13 21 L 13 13 L 20 13 L 20 16 C 24.925172 11.305715 24.582198 12.582198 20 8 L 20 11 L 13 11 L 13 3 L 15 3 L 12 0 z "
     />
  <path
     style="fill:#555753"
     d="M 10.585938 0 L 7 3.5859375 L 7 5 L 9 5 L 9 9 L 5 9 L 5 7 L 3.5859375 7 L 3.2929688 7.2929688 L 0 10.585938 L 0 13.414062 L 3.5859375 17 L 5 17 L 5 15 L 9 15 L 9 19 L 7 19 L 7 20.414062 L 7.2929688 20.707031 L 10.585938 24 L 13.414062 24 L 17 20.414062 L 17 19 L 15 19 L 15 15 L 19 15 L 19 17 L 20.414062 17 L 20.707031 16.707031 L 24 13.414062 L 24 10.585938 L 20.414062 7 L 19 7 L 19 9 L 15 9 L 15 5 L 17 5 L 17 3.5859375 L 16.707031 3.2929688 L 13.414062 0 L 10.585938 0 z M 12 1.4140625 L 13.585938 3 L 13 3 L 13 11 L 21 11 L 21 10.414062 L 22.585938 12 L 21 13.585938 L 21 13 L 13 13 L 13 21 L 13.585938 21 L 12 22.585938 L 10.414062 21 L 11 21 L 11 13 L 3 13 L 3 13.585938 L 1.4140625 12 L 3 10.414062 L 3 11 L 11 11 L 11 3 L 10.414062 3 L 12 1.4140625 z "
     />
</svg>
